X:1
T:Title
%%score { ( 1 3 ) | ( 2 4 ) }
L:1/8
Q:1/4=93
M:6/8
K:Ab
V:1 treble nm="Grand Piano"
V:3 treble 
V:2 bass 
V:4 bass 
V:1
 [CE]2 [CF] [CF]2 [CG] | [DF]2 [DE] .[DE]3 | [EA]2 [EA] [=DB]2 [Dc] | z3 B3 | %4
w: Otis~Kline * * *||||
 [CE]2 [CF] [CF]2 [CG] | [DF]2 [DE] .[DE]3 | [EA]2 [EA] [DB] [Dc]2 | [DB]3 .[CA]3 | %8
w: ||||
 [Ec]2 [Ec] _c2 =c | d3 c3 | [=Dc]2 [DB] [DF]2 [Dc] | B6 | B2 B =A2 B | c3 B3 | %14
w: ||||||
 [CB]2 [CA] [DG]2 [EA] | e6 | c2 c _c2 =c | d3 c3 | [=Dc]2 [DB] [DF]2 [DB] | [=Df]6 | %20
w: ||||||
 [EA]2 [EA] [FB]2 [F_c] |[M:7/8] [Ec]3 [Ee]3 E |[M:3/4] [=DF]2 [Dc] B2 A | [CA]6 |] %24
w: ||||
V:2
 [A,,A,]2 [A,,A,] [A,,A,]2 [A,,A,] | [B,,G,]2 [B,,G,] .[B,,G,]3 | [C,A,]2 [C,A,] [B,,A,]2 [B,,A,] | %3
 [E,G,E]3 .[E,G,E]3 | [A,,A,]2 [A,,A,] [A,,A,]2 [A,,A,] | [B,,G,]2 [B,,G,] .[B,,G,]3 | %6
 [C,A,]2 [C,A,] [B,,A,] [B,,A,]2 | [E,G,]3 .[A,,A,]3 | [A,,A,]2 [A,,A,] [A,=D]2 [A,E] | %9
 [F,=A,F]3 [F,A,E]3 | [B,,A,]2 [B,,A,] [B,,A,]2 [B,,A,] | .[G,D]3 z3 | %12
 [E,G,D]2 [E,G,D] [E,_G,C]2 [E,=G,D] | [E,G,E]3 [E,G,D]3 | [A,,A,]2 [A,,E,] [B,,E,]2 [C,A,] | %15
 [B,,G,][E,B,][E,C] [E,D][E,C][E,B,] | [A,E]2 [A,E] [A,=D]2 [A,E] | [F,=A,F]3 [F,A,E]3 | %18
 [B,,A,]2 [B,,A,] [B,,A,]2 [B,,A,] | [_C,A,]6 | [C,A,]2 [C,A,] [D,A,]2 [=D,A,] | %21
[M:7/8] [E,A,]3 [C,A,]3 [C,A,] |[M:3/4] [B,,A,]2 [B,,A,] [E,G,D]2 [E,D] | [A,,E,]6 |] %24
V:3
 x6 | x6 | x6 | c3 z2 D | x6 | x6 | x6 | x6 | x6 | x6 | x6 | z EF GFE | x6 | x6 | x6 | EGA BAG | %16
 x6 | x6 | x6 | x6 | x6 |[M:7/8] x7 |[M:3/4] x6 | x6 |] %24
V:4
 x6 | x6 | x6 | x6 | x6 | x6 | x6 | x6 | x6 | x6 | x6 | E,-[E,-G,][E,-A,] [E,-B,][E,A,]G, | x6 | %13
 x6 | x6 | x6 | x6 | x6 | x6 | x6 | x6 |[M:7/8] x7 |[M:3/4] x6 | x6 |] %24

